static/fa/svgs/solid/grip.svg

<svg xmlns="http://www.w3.org/2000/svg" viewBox="0 0 448 512"><!--! Font Awesome Free 6.1.1 by @fontawesome - https://fontawesome.com License - https://fontawesome.com/license/free (Icons: CC BY 4.0, Fonts: SIL OFL 1.1, Code: MIT License) Copyright 2022 Fonticons, Inc.--><path d="M128 184c0 22.1-17.9 40-40 40H40c-22.09 0-40-17.9-40-40v-48c0-22.1 17.91-40 40-40h48c22.1 0 40 17.9 40 40v48zm0 192c0 22.1-17.9 40-40 40H40c-22.09 0-40-17.9-40-40v-48c0-22.1 17.91-40 40-40h48c22.1 0 40 17.9 40 40v48zm32-240c0-22.1 17.9-40 40-40h48c22.1 0 40 17.9 40 40v48c0 22.1-17.9 40-40 40h-48c-22.1 0-40-17.9-40-40v-48zm128 240c0 22.1-17.9 40-40 40h-48c-22.1 0-40-17.9-40-40v-48c0-22.1 17.9-40 40-40h48c22.1 0 40 17.9 40 40v48zm32-240c0-22.1 17.9-40 40-40h48c22.1 0 40 17.9 40 40v48c0 22.1-17.9 40-40 40h-48c-22.1 0-40-17.9-40-40v-48zm128 240c0 22.1-17.9 40-40 40h-48c-22.1 0-40-17.9-40-40v-48c0-22.1 17.9-40 40-40h48c22.1 0 40 17.9 40 40v48z"/></svg>

<svg xmlns="http://www.w3.org/2000/svg" viewBox="0 0 448 512"><!--! Font Awesome Free 6.1.1 by @fontawesome - https://fontawesome.com License - https://fontawesome.com/license/free (Icons: CC BY 4.0, Fonts: SIL OFL 1.1, Code: MIT License) Copyright 2022 Fonticons, Inc. --><path d="M128 184C128 206.1 110.1 224 88 224H40C17.91 224 0 206.1 0 184V136C0 113.9 17.91 96 40 96H88C110.1 96 128 113.9 128 136V184zM128 376C128 398.1 110.1 416 88 416H40C17.91 416 0 398.1 0 376V328C0 305.9 17.91 288 40 288H88C110.1 288 128 305.9 128 328V376zM160 136C160 113.9 177.9 96 200 96H248C270.1 96 288 113.9 288 136V184C288 206.1 270.1 224 248 224H200C177.9 224 160 206.1 160 184V136zM288 376C288 398.1 270.1 416 248 416H200C177.9 416 160 398.1 160 376V328C160 305.9 177.9 288 200 288H248C270.1 288 288 305.9 288 328V376zM320 136C320 113.9 337.9 96 360 96H408C430.1 96 448 113.9 448 136V184C448 206.1 430.1 224 408 224H360C337.9 224 320 206.1 320 184V136zM448 376C448 398.1 430.1 416 408 416H360C337.9 416 320 398.1 320 376V328C320 305.9 337.9 288 360 288H408C430.1 288 448 305.9 448 328V376z"/></svg>
